assets/icon-banana.svg

<svg
  class="icon icon-accordion icon-banana"
  aria-hidden="true"
  focusable="false"
  xmlns="http://www.w3.org/2000/svg"
  width="20"
  height="20"
  viewBox="0 0 20 20"
>
  <path d="M9.58939 2.04935C9.70278 1.96927 9.84436 1.93993 9.98024 1.96837L12.1559 2.42361C12.408 2.47637 12.5788 2.71205 12.5504 2.96807L12.3138 5.10404C12.3555 5.13755 12.4053 5.17072 12.4788 5.21958C12.5193 5.24655 12.567 5.27831 12.6245 5.31756C12.9513 5.54051 13.3912 5.88157 13.6898 6.53073C14.024 7.25761 14.303 8.11357 14.5807 8.96549C14.6035 9.03552 14.6264 9.10552 14.6492 9.17542C14.9546 10.1102 15.2674 11.0396 15.6678 11.8693C16.068 12.6988 16.5398 13.3939 17.1428 13.8785C17.7344 14.3539 18.477 14.6469 19.4685 14.6364C19.6178 14.6349 19.76 14.7001 19.8562 14.8144C19.9524 14.9287 19.9925 15.0799 19.9655 15.2268C19.8731 15.7293 19.5512 16.4108 18.893 16.9222C18.2217 17.4439 17.2418 17.7572 15.8976 17.5804C14.6826 17.4511 13.1852 16.8785 12.0063 15.311C11.9882 15.287 11.9702 15.2627 11.9522 15.2381C11.1194 17.0387 8.72378 19.2058 4.58412 18.6145C4.35292 18.5815 4.17538 18.3929 4.15645 18.1601C4.13753 17.9273 4.28227 17.7124 4.50511 17.6425C4.53208 17.634 4.56314 17.625 4.59775 17.615C4.97981 17.5043 5.7956 17.2679 6.34999 16.237C6.61683 15.4808 6.73258 14.9216 6.77285 14.4342C6.81396 13.9365 6.77848 13.4941 6.72455 12.9516C6.71963 12.9022 6.7146 12.8522 6.70951 12.8016C6.60065 11.7201 6.46178 10.3405 6.80091 7.78357C6.89499 7.07423 7.2501 6.36099 7.70563 5.80064C8.07332 5.34834 8.54644 4.94741 9.06367 4.74229L9.38236 2.39062C9.40101 2.25306 9.476 2.12944 9.58939 2.04935ZM11.2725 14.1084C10.5074 12.557 10.0209 10.3842 10.0365 7.37309C10.038 7.09695 10.263 6.87426 10.5391 6.87569C10.8153 6.87712 11.038 7.10213 11.0365 7.37827C11.017 11.1373 11.8091 13.3852 12.8055 14.71C13.7938 16.0241 15.023 16.4829 16.009 16.5866L16.0224 16.588C17.1418 16.7365 17.8462 16.4692 18.2794 16.1326C18.4907 15.9684 18.6475 15.7801 18.7597 15.5972C17.871 15.4873 17.1327 15.1533 16.5164 14.658C15.752 14.0438 15.2006 13.2024 14.7671 12.3039C14.3337 11.4057 14.0024 10.4157 13.6986 9.48599C13.6772 9.42039 13.6559 9.35515 13.6348 9.29028C13.3514 8.42141 13.09 7.61997 12.7812 6.94854C12.5929 6.53906 12.3248 6.32367 12.0609 6.1436C12.0354 6.12619 12.0066 6.10708 11.9759 6.08667C11.8678 6.01486 11.7357 5.92709 11.6375 5.84192C11.4956 5.71899 11.3146 5.5136 11.3025 5.20124C11.3015 5.17638 11.3024 5.15148 11.3051 5.12675L11.5065 3.30939L10.3012 3.05718L10.0118 5.19278C9.9833 5.4028 9.82551 5.57207 9.61799 5.61518C9.27759 5.6859 8.85406 5.97324 8.48157 6.43144C8.11516 6.88218 7.85688 7.42763 7.79223 7.91505C7.46822 10.358 7.59866 11.6519 7.70409 12.6977C7.70935 12.7499 7.71456 12.8016 7.71964 12.8527C7.77404 13.3998 7.81867 13.9208 7.76945 14.5165C7.71999 15.1152 7.57786 15.77 7.27992 16.6066C7.27203 16.6288 7.26257 16.6504 7.25163 16.6712C7.02512 17.1028 6.7592 17.4359 6.48673 17.6938C9.65464 17.4589 11.1039 15.2127 11.2725 14.1084Z" />
  <path d="M6.27111 11.8004C6.52894 11.3027 6.60251 10.9081 6.58566 10.7451L7.58035 10.6422C7.62656 11.0889 7.45335 11.6923 7.15905 12.2604C6.85438 12.8486 6.38071 13.4767 5.73385 13.9687C4.86162 14.6322 4.1367 15.0865 3.40292 15.4806C5.55977 15.2705 6.56129 14.7956 6.93741 14.4936L7.56344 15.2734C6.79366 15.8914 4.92577 16.5867 1.00511 16.5867C0.770535 16.5867 0.567494 16.4236 0.516889 16.1946C0.466283 15.9655 0.581721 15.7321 0.794467 15.6332C0.870045 15.5981 0.944324 15.5637 1.01741 15.5298C2.59233 14.7991 3.61321 14.3255 5.12841 13.1728C5.63986 12.7838 6.02365 12.2781 6.27111 11.8004Z" />
</svg>

<svg xmlns="http://www.w3.org/2000/svg" class="icon icon-accordion icon-banana" viewBox="0 0 20 20"><path d="M9.59 2.05a.5.5 0 0 1 .39-.082l2.176.456a.5.5 0 0 1 .394.544l-.236 2.136c.041.034.091.067.165.116l.146.098c.326.223.766.564 1.065 1.213.334.727.613 1.583.89 2.434l.07.21c.305.935.617 1.865 1.018 2.694.4.83.872 1.525 1.475 2.01.591.475 1.334.768 2.325.757a.5.5 0 0 1 .497.59c-.092.503-.414 1.185-1.072 1.696-.671.522-1.651.835-2.995.658-1.215-.129-2.713-.701-3.892-2.269l-.054-.073c-.833 1.8-3.228 3.968-7.368 3.377a.5.5 0 0 1-.079-.973l.093-.027c.382-.11 1.198-.347 1.752-1.378.267-.756.383-1.315.423-1.803.041-.497.005-.94-.048-1.482l-.015-.15c-.11-1.082-.248-2.461.09-5.018.095-.71.45-1.423.906-1.983.367-.453.84-.854 1.358-1.059l.318-2.351a.5.5 0 0 1 .207-.342m1.683 12.058c-.766-1.551-1.252-3.724-1.236-6.735a.5.5 0 0 1 1 .005c-.02 3.76.772 6.007 1.768 7.332.989 1.314 2.218 1.773 3.204 1.877l.013.001c1.12.148 1.824-.119 2.257-.455a2 2 0 0 0 .48-.536 4.36 4.36 0 0 1-2.243-.939c-.764-.614-1.315-1.456-1.749-2.354-.433-.898-.765-1.888-1.068-2.818l-.064-.196c-.284-.869-.545-1.67-.854-2.341-.188-.41-.456-.625-.72-.805l-.085-.057a4 4 0 0 1-.339-.245c-.141-.123-.322-.328-.335-.64l.003-.075.202-1.818-1.206-.252-.29 2.136a.5.5 0 0 1-.393.422c-.34.07-.764.358-1.136.816-.367.451-.625.997-.69 1.484-.324 2.443-.193 3.737-.088 4.783l.016.155c.054.547.099 1.068.05 1.664-.05.598-.192 1.253-.49 2.09l-.028.064a3.9 3.9 0 0 1-.765 1.023c3.168-.235 4.617-2.481 4.786-3.586"/><path d="M6.271 11.8c.258-.497.332-.892.315-1.055l.994-.103c.047.447-.127 1.05-.421 1.618a5.1 5.1 0 0 1-1.425 1.709 17 17 0 0 1-2.331 1.512c2.157-.21 3.158-.685 3.534-.987l.626.78c-.77.617-2.637 1.313-6.558 1.313a.5.5 0 0 1-.21-.954l.222-.103c1.575-.73 2.596-1.204 4.111-2.357A4.1 4.1 0 0 0 6.271 11.8"/></svg>
